X:230
T: Drumbeggil
C: BB
R: hornpipe
Q: 1/8=320
M: 4/4
L: 1/8
K: G
D|"G"G2 FG "Am"AB c2|"Em"B2 AB "C"cd e2|"G"gddg "Am"eccA|"C"(3Bcd cA "D"GFED|
"G"GBdA "C"Ec (3cBc|"G"BcBA "Em"GE (3EDE|"G"D2 ED "Em"(3EFG AB| "D7"cAFA "G"G3 :|
d|"G"gdBc dc B2 |"Am7"abag "D"fd (3dcd|"C"c2 EF "G"GABc|"D"defd "Em"gfed|
"G"gddg "C"ec (3cBc|"G"BcBA "Em"GE (3EDE|"G"D2 ED "Em"(3EFG AB| "D"cAFA "G"G3 :|

%%%%%%%%%%%%%%%%%%%%%%%%%%%%%%%%%%%%%%%%%%%

